img/why-we/pinion.svg

<svg width="34" height="34" viewBox="0 0 34 34" fill="none" xmlns="http://www.w3.org/2000/svg">
<g clip-path="url(#clip0_384_366)">
<path d="M31.1025 13.9515L28.5195 13.3789C28.3182 12.7349 28.0546 12.1191 27.7527 11.5264L29.1504 9.19893C29.6716 8.36475 29.9353 7.13914 29.1504 6.35225L27.7266 4.92942C26.9417 4.14353 25.6154 4.28542 24.8145 4.84087L22.5494 6.28383C21.9618 5.97893 21.3469 5.71731 20.709 5.51103L20.1294 2.89679C19.9563 1.93783 19.1181 0.900391 18.0062 0.900391H15.9937C14.8828 0.900391 14.2016 1.95393 13.9812 2.91289L13.3352 5.49593C12.6529 5.71328 11.9989 5.99101 11.375 6.32005L9.05257 4.84087C8.2526 4.28542 6.92536 4.14454 6.14048 4.92942L4.71664 6.35225C3.93076 7.13914 4.19439 8.36475 4.71664 9.19793L6.18677 11.6481C5.91106 12.2036 5.66654 12.7782 5.47736 13.3789L2.89533 13.9515C1.93637 14.1235 0.898926 14.9627 0.898926 16.0736V18.0861C0.898926 19.198 1.95247 19.8793 2.91143 20.0986L5.52566 20.7517C5.70578 21.3061 5.93219 21.8384 6.18778 22.3546L4.71664 24.8079C4.1954 25.6411 3.93176 26.8677 4.71664 27.6536L6.14048 29.0764C6.92536 29.8633 8.2516 29.7204 9.05257 29.166L11.38 27.6827C12.0069 28.0138 12.665 28.2945 13.3523 28.5109L13.9963 31.0859C14.2166 32.0448 14.8979 33.0984 16.0088 33.0984H18.0213C19.1332 33.0984 19.9714 32.0599 20.1445 31.101L20.7251 28.4807C21.357 28.2764 21.9628 28.0188 22.5444 27.718L24.8145 29.1649C25.6154 29.7204 26.9417 29.8613 27.7276 29.0754L29.1514 27.6526C29.9363 26.8657 29.6726 25.6401 29.1514 24.8069L27.7527 22.4754C28.0335 21.923 28.277 21.3484 28.4732 20.7507L31.0884 20.0976C32.0474 19.8773 33.1009 19.197 33.1009 18.0851V16.0726C33.1009 14.9617 32.0635 14.1225 31.1035 13.9494L31.1025 13.9515ZM31.0884 17.9453C31.0029 18.0066 30.8419 18.0912 30.6376 18.1385L26.9065 19.0702L26.5603 20.1278C26.4043 20.6048 26.2021 21.0878 25.9596 21.5647L25.4544 22.5569L27.4257 25.8443C27.5515 26.0456 27.6098 26.2257 27.6279 26.3324L26.3037 27.6546C26.1759 27.6143 26.031 27.562 25.9606 27.5137L22.648 25.4016L21.6186 25.9339C21.1225 26.1915 20.6134 26.4048 20.1062 26.5688L19.0094 26.923L18.1803 30.6693C18.142 30.8695 18.0344 31.0315 17.9609 31.0889H16.1497C16.0883 31.0034 16.0037 30.8424 15.9575 30.6381L15.0307 26.9341L13.958 26.594C13.4056 26.4199 12.8542 26.1875 12.3179 25.9057L11.2834 25.3593L7.96985 27.4714C7.834 27.563 7.6891 27.6153 7.55829 27.6153L6.2391 26.3313C6.25721 26.2267 6.31155 26.0556 6.42123 25.8795L8.47901 22.4502L7.98896 21.4641C7.76055 20.9992 7.57942 20.5635 7.43855 20.1308L7.0934 19.0723L3.39946 18.1485C3.16701 18.0962 2.99897 18.0087 2.91143 17.9473V16.0756C2.91143 16.0756 2.91344 16.0767 2.91646 16.0767C2.95067 16.0767 3.11569 15.9589 3.25355 15.9338L7.04913 15.0935L7.39729 13.9837C7.53917 13.5318 7.73237 13.0609 7.98896 12.5447L8.47901 11.5586L6.44236 8.16451C6.31658 7.96225 6.25721 7.78213 6.2401 7.67648L7.56332 6.35427C7.69212 6.39552 7.83601 6.44785 7.90545 6.49514L11.2804 8.6465L12.3138 8.10112C12.8441 7.82138 13.3935 7.59095 13.946 7.41485L15.0156 7.07474L15.9333 3.40293C15.9866 3.17049 16.0722 3.00245 16.1346 2.9149H18.0052C17.9911 2.93503 18.1209 3.11112 18.1481 3.25602L18.9933 7.07373L20.0891 7.42793C20.6033 7.59397 21.1185 7.81031 21.6216 8.07093L22.651 8.60625L25.8952 6.54042C26.031 6.44785 26.1759 6.39653 26.3067 6.39653L27.6279 7.6805C27.6108 7.78515 27.5555 7.95823 27.4458 8.13332L25.4534 11.4499L25.9616 12.4441C26.2363 12.9804 26.4446 13.4835 26.6006 13.9826L26.9487 15.0935L30.6688 15.9187C30.8942 15.9599 31.0693 16.0907 31.1055 16.1612L31.0884 17.9453ZM17.013 10.9528C13.6713 10.9528 10.9524 13.6667 10.9524 17.0004C10.9524 20.3341 13.6713 23.048 17.013 23.048C20.3548 23.048 23.0737 20.3341 23.0737 17.0014C23.0737 13.6677 20.3548 10.9538 17.013 10.9538V10.9528ZM16.9999 21.0254C14.7812 21.0254 12.9749 19.2202 12.9749 17.0004C12.9749 14.7806 14.7801 12.9754 16.9999 12.9754C19.2197 12.9754 21.0249 14.7806 21.0249 17.0004C21.0249 19.2202 19.2197 21.0254 16.9999 21.0254Z" fill="#FBD8D5"/>
</g>
<defs>
<clipPath id="clip0_384_366">
<rect width="32.2" height="32.2" fill="white" transform="translate(0.899902 0.900391)"/>
</clipPath>
</defs>
</svg>

<svg width="34" height="34" fill="none" xmlns="http://www.w3.org/2000/svg"><g clip-path="url(#clip0_384_366)"><path d="M31.102 13.951l-2.582-.572a11.924 11.924 0 00-.767-1.853L29.15 9.2c.522-.834.785-2.06 0-2.847L27.727 4.93c-.785-.785-2.112-.644-2.913-.088L22.55 6.284a12.05 12.05 0 00-1.84-.773l-.58-2.614C19.956 1.937 19.12.9 18.006.9h-2.012c-1.111 0-1.792 1.054-2.013 2.013l-.646 2.583c-.682.217-1.336.495-1.96.824L9.053 4.84c-.8-.555-2.128-.695-2.913.09L4.717 6.351c-.786.787-.523 2.013 0 2.846l1.47 2.45c-.276.556-.52 1.13-.71 1.73l-2.582.573C1.936 14.123.9 14.963.9 16.075v2.012c0 1.112 1.053 1.793 2.012 2.013l2.615.653a11.9 11.9 0 00.662 1.603l-1.471 2.453c-.522.833-.785 2.06 0 2.846l1.423 1.422c.785.787 2.112.644 2.913.09l2.327-1.483c.627.33 1.285.611 1.972.828l.644 2.575c.22.959.902 2.012 2.013 2.012h2.012c1.112 0 1.95-1.038 2.123-1.997l.581-2.62a11.982 11.982 0 001.82-.763l2.27 1.447c.8.555 2.127.696 2.913-.09l1.423-1.422c.785-.787.522-2.013 0-2.846l-1.398-2.332c.28-.552.524-1.127.72-1.724l2.615-.653c.96-.22 2.013-.901 2.013-2.013v-2.012c0-1.111-1.038-1.95-1.997-2.124l-.002.002zm-.014 3.994a1.322 1.322 0 01-.45.194l-3.732.931-.346 1.058c-.156.477-.358.96-.6 1.437l-.506.992 1.972 3.287c.126.202.184.382.202.488l-1.324 1.323a1.56 1.56 0 01-.343-.141l-3.313-2.112-1.03.532a9.914 9.914 0 01-1.512.635l-1.097.354-.829 3.746c-.038.2-.146.363-.22.42h-1.81a1.3 1.3 0 01-.192-.45l-.927-3.705-1.073-.34a10.01 10.01 0 01-1.64-.688l-1.035-.547-3.313 2.112a.76.76 0 01-.412.144L6.24 26.331a1.35 1.35 0 01.182-.451l2.058-3.43-.49-.986c-.228-.465-.41-.9-.55-1.333l-.346-1.059-3.694-.924c-.232-.052-.4-.14-.488-.2v-1.872h.005c.035 0 .2-.117.338-.142l3.795-.84.348-1.11c.142-.452.335-.923.592-1.44l.49-.985-2.037-3.394a1.43 1.43 0 01-.202-.489l1.323-1.322c.13.042.273.094.342.141l3.375 2.151 1.034-.545c.53-.28 1.08-.51 1.632-.686l1.07-.34.917-3.672c.054-.233.14-.4.202-.488h1.87c-.014.02.116.196.143.341l.845 3.818 1.096.354c.514.166 1.03.382 1.533.643l1.029.535 3.244-2.066a.752.752 0 01.412-.143l1.32 1.284a1.312 1.312 0 01-.181.452l-1.993 3.317.509.994a9.77 9.77 0 01.639 1.539l.348 1.11 3.72.826c.225.04.4.172.436.242l-.017 1.784zm-14.075-6.992c-3.342 0-6.06 2.714-6.06 6.047 0 3.334 2.718 6.048 6.06 6.048 3.342 0 6.06-2.714 6.06-6.047 0-3.333-2.718-6.047-6.06-6.047v-.001zM17 21.025A4.03 4.03 0 0112.975 17 4.029 4.029 0 0117 12.975 4.029 4.029 0 0121.025 17 4.029 4.029 0 0117 21.025z" fill="#FBD8D5"/></g><defs><clipPath id="clip0_384_366"><path fill="#fff" transform="translate(.9 .9)" d="M0 0h32.2v32.2H0z"/></clipPath></defs></svg>
